web/static/assets/images/hand-speechbubble.svg

<?xml version="1.0" encoding="UTF-8" standalone="no"?>
<svg
   xmlns:dc="http://purl.org/dc/elements/1.1/"
   xmlns:cc="http://creativecommons.org/ns#"
   xmlns:rdf="http://www.w3.org/1999/02/22-rdf-syntax-ns#"
   xmlns:svg="http://www.w3.org/2000/svg"
   xmlns="http://www.w3.org/2000/svg"
   xmlns:sodipodi="http://sodipodi.sourceforge.net/DTD/sodipodi-0.dtd"
   xmlns:inkscape="http://www.inkscape.org/namespaces/inkscape"
   width="114.95"
   height="119.109"
   viewBox="0 0 114.95 119.109"
   version="1.1"
   inkscape:version="0.91 r13725"
   sodipodi:docname="hand-speechbubble.svg">
  <metadata
     id="metadata11">
    <rdf:RDF>
      <cc:Work
         rdf:about="">
        <dc:format>image/svg+xml</dc:format>
        <dc:type
           rdf:resource="http://purl.org/dc/dcmitype/StillImage" />
        <dc:title>hand</dc:title>
      </cc:Work>
    </rdf:RDF>
  </metadata>
  <defs
     id="defs9" />
  <sodipodi:namedview
     pagecolor="#ffffff"
     bordercolor="#666666"
     borderopacity="1"
     objecttolerance="10"
     gridtolerance="10"
     guidetolerance="10"
     inkscape:pageopacity="0"
     inkscape:pageshadow="2"
     inkscape:window-width="1115"
     inkscape:window-height="858"
     id="namedview7"
     showgrid="false"
     inkscape:zoom="5.6041844"
     inkscape:cx="24.741365"
     inkscape:cy="58.145212"
     inkscape:window-x="101"
     inkscape:window-y="40"
     inkscape:window-maximized="0"/>
  <title
     id="title3">hand</title>
  <path
     clip-path="none"
     d="M 66.304688 0 L 51.771484 1.75 L 54.628906 50.626953 L 49.066406 51.644531 L 40.921875 7.1503906 L 25.400391 10.673828 L 36.859375 81.990234 L 16.033203 65.345703 L 0 69.474609 C 0 69.474609 34.53375 119.15537 35.09375 119.10938 C 35.65375 119.06337 110.36914 114.66406 110.36914 114.66406 L 114.94922 22 L 100.79492 21.460938 L 97.929688 55.560547 L 94.005859 55.880859 L 93.162109 4.0195312 L 77.371094 4.1777344 L 75.890625 48.328125 L 72.011719 49.208984 L 66.304688 0 z M 91.341797 64.726562 L 94.949219 98.535156 L 65.060547 101.55078 L 57.558594 112.87109 L 54.882812 102.57812 L 49.005859 103.17188 L 45.398438 69.363281 L 91.341797 64.726562 z "
     id="path5"
     style="fill:#50dbcb;fill-opacity:1" />
</svg>

<svg xmlns="http://www.w3.org/2000/svg" width="114.95" height="119.109" viewBox="0 0 114.95 119.109"><title>hand</title><path d="M66.305 0L51.77 1.75l2.858 48.877-5.563 1.018L40.922 7.15 25.4 10.674 36.86 81.99 16.032 65.346 0 69.475s34.534 49.68 35.094 49.634c.56-.046 75.275-4.445 75.275-4.445L114.95 22l-14.154-.54-2.865 34.1-3.924.32-.844-51.86-15.79.158-1.481 44.15-3.88.881L66.306 0zm25.037 64.727l3.607 33.808-29.888 3.016-7.502 11.32-2.676-10.293-5.877.594-3.608-33.809 45.944-4.636z" fill="#50dbcb"/></svg>
